X: 102
M: C|
L: 1/8
K: D
V: 1
    fdec BcdB | AdFd EFGB | Adfd cdef | gbec d2d |]
V: 2 clef=bass middle=d
z | d2d2 d2d2 | e2d2 A2A2 | d2f2 d2g2 | a2A2 d2D :|
z | d2e2 f3d  | g2g2 f2d2 | d2e2 f2g2 | a2A2 d2d2 |
    d2A2 G2g2 | f2d2 A2G2 | D2d2 A2d2 | e2A2 d2D :|


